Sources/FrostedUI/Resources/Icons.xcassets/people32.imageset/people-32.svg

<svg width="32" height="32" viewBox="0 0 32 32" fill="none" xmlns="http://www.w3.org/2000/svg" data-fui-icon="true">
  <path
    d="M10.6674 16.25C13.209 16.2502 15.2642 17.2632 16.7699 18.9473C18.2602 20.6144 19.1865 22.9066 19.5804 25.46C19.775 26.7212 18.7573 27.7498 17.5658 27.75H3.76794C2.57631 27.75 1.5587 26.7213 1.7533 25.46C2.14725 22.9066 3.0735 20.6144 4.56384 18.9473C6.06966 17.2631 8.12546 16.25 10.6674 16.25ZM22.6674 16.25C24.8917 16.2501 26.7026 17.1104 28.0404 18.5508C29.3638 19.9759 30.1952 21.9349 30.5668 24.1152C30.7834 25.3865 29.7528 26.4166 28.5648 26.417H23.6674C23.2533 26.417 22.9175 26.0811 22.9174 25.667C22.9174 25.2528 23.2531 24.917 23.6674 24.917H28.5648C28.9266 24.9166 29.1319 24.6239 29.0883 24.3672C28.7513 22.3897 28.0151 20.7272 26.9418 19.5713C25.8829 18.4312 24.4676 17.7501 22.6674 17.75C22.1296 17.75 21.6288 17.8107 21.1654 17.9238C20.7632 18.0219 20.3574 17.7753 20.2592 17.373C20.1611 16.9708 20.4077 16.5651 20.8099 16.4668C21.3955 16.3238 22.0158 16.25 22.6674 16.25ZM10.6674 17.75C8.56563 17.75 6.91218 18.5704 5.68201 19.9463C4.43664 21.3392 3.59899 23.3341 3.23572 25.6885C3.19408 25.9583 3.41027 26.25 3.76794 26.25H17.5658C17.9233 26.2498 18.1396 25.9583 18.098 25.6885C17.7348 23.3342 16.897 21.3392 15.6517 19.9463C14.4217 18.5705 12.7688 17.7502 10.6674 17.75ZM10.6674 4.25C13.4744 4.25039 15.7502 6.52595 15.7504 9.33301C15.7504 12.1402 13.4745 14.4166 10.6674 14.417C7.85991 14.417 5.58337 12.1405 5.58337 9.33301C5.58355 6.52571 7.86002 4.25 10.6674 4.25ZM22.6674 5.58301C25.1063 5.5834 27.0834 7.56098 27.0834 10C27.0834 12.439 25.1063 14.4166 22.6674 14.417C20.2281 14.417 18.2504 12.4393 18.2504 10C18.2504 7.56074 20.2281 5.58301 22.6674 5.58301ZM10.6674 5.75C8.68845 5.75 7.08355 7.35414 7.08337 9.33301C7.08337 11.312 8.68834 12.917 10.6674 12.917C12.646 12.9166 14.2504 11.3118 14.2504 9.33301C14.2502 7.35438 12.6459 5.75039 10.6674 5.75ZM22.6674 7.08301C21.0565 7.08301 19.7504 8.38917 19.7504 10C19.7504 11.6108 21.0565 12.917 22.6674 12.917C24.2779 12.9166 25.5834 11.6106 25.5834 10C25.5834 8.38941 24.2779 7.0834 22.6674 7.08301Z"
    fill="currentColor"
  />
</svg>

<svg xmlns="http://www.w3.org/2000/svg" width="32" height="32" fill="none" data-fui-icon="true" viewBox="0 0 32 32"><path fill="currentColor" d="M10.667 16.25c2.542 0 4.597 1.013 6.103 2.697 1.49 1.667 2.416 3.96 2.81 6.513.195 1.261-.823 2.29-2.014 2.29H3.768c-1.192 0-2.21-1.029-2.015-2.29.394-2.553 1.32-4.846 2.81-6.513 1.507-1.684 3.562-2.697 6.104-2.697m12 0c2.225 0 4.036.86 5.373 2.3 1.324 1.426 2.155 3.385 2.527 5.565.216 1.272-.814 2.302-2.002 2.302h-4.898a.75.75 0 0 1 0-1.5h4.898c.362 0 .567-.293.523-.55-.337-1.977-1.073-3.64-2.146-4.796-1.06-1.14-2.474-1.82-4.275-1.821a6.3 6.3 0 0 0-1.502.174.75.75 0 0 1-.355-1.457 7.8 7.8 0 0 1 1.857-.217m-12 1.5c-2.101 0-3.755.82-4.985 2.196-1.245 1.393-2.083 3.388-2.446 5.743-.042.27.174.561.532.561h13.798c.357 0 .574-.292.532-.561-.363-2.355-1.201-4.35-2.446-5.743-1.23-1.376-2.883-2.196-4.985-2.196m0-13.5a5.084 5.084 0 1 1-.001 10.167 5.084 5.084 0 0 1 .001-10.167m12 1.333a4.417 4.417 0 1 1-.002 8.834 4.417 4.417 0 0 1 .002-8.834m-12 .167a3.584 3.584 0 1 0 0 7.168 3.584 3.584 0 0 0 0-7.168m12 1.333a2.917 2.917 0 1 0 0 5.834 2.917 2.917 0 0 0 0-5.834"/></svg>
